app/assets/logos/geins-g.svg

<svg viewBox="0 0 145.3 271.92707774798924" style="max-height: 500px" xml:space="preserve" xmlns="http://www.w3.org/2000/svg" width="145.3" height="271.92707774798924"><path d="M292.6 133.4c-10 0-18.1 8.1-18.1 18.1v.2c.3 4.1-.7 7.4-2.9 9.7-3.4 3.6-8.9 4.4-10.9 4.5h-33.3c-.1 0-7.5-.1-11.7-4.5-2.2-2.3-3.2-5.6-2.9-9.7V86.8c-.3-4.1.7-7.4 2.9-9.7 4.2-4.5 11.6-4.5 11.7-4.5H261.7c5.9.9 11.9 4.6 12.3 13.3v.1c.9 12.6-6.4 15-12 15.3-.9 0-17.4-.1-17.4-.1-10 0-18.1 8.1-18.1 18.1s8.1 18.2 18.1 18.2h15.3c10 0 18.1-8.1 18.1-18.2 0-.4.1-1.5.1-1.8 1.2-12.4 10.9-11.8 14.1-12.3h.2c10 0 18.1-8.1 18.1-18.1S302.4 69 292.4 69h-.2c-2.7 0-13.2-.5-14.2-12.6v-2.2c0-10-8.1-17.8-18.1-17.8h-32.5c-10 0-18.1 8.1-18.1 18-1.6 14.7-13.3 14.6-14.6 14.5h-.2c-10 0-18.1 8.1-18.1 18.1v64.5c0 10 8.1 18.1 18.1 18.1h.2c1.3-.1 13-.2 14.4 14.6.1 8.4 5.8 15.4 13.6 17.4.2 0 .4.1.5.1.3.1.6.1.9.2 1.1.2 2.1.4 3.3.4h32.5c10 0 18.1-8.1 18.1-18 1.4-14.8 13.1-14.7 14.4-14.6h.2c10 0 18.1-8.1 18.1-18.1s-8.1-18.2-18.1-18.2zM536.9 68.5h-.2c-1.3.1-13 .2-14.4-14.6-.1-7.3-4.5-13.6-10.7-16.4 0 0-2.7-1.6-7.2-1.6H472c-10 0-18.1 8.1-18.1 18-1.4 14.8-13.1 14.7-14.4 14.6h-.2c-10 0-18.1 8.1-18.1 18.1v97.2c0 10 8.1 18.1 18.1 18.1s18.1-8.1 18.1-18.1V86.5c-.3-4.1.7-7.4 2.9-9.7 4.2-4.5 11.6-4.5 11.7-4.5h32.2c.1 0 7.5.1 11.7 4.5 2.2 2.3 3.2 5.6 2.9 9.7v65c0 .1-.1 7.5-4.5 11.7-2.3 2.2-5.6 3.2-9.7 2.9h-.2c-10 0-18.1 8.1-18.1 18.1s8.1 18.1 18.1 18.1 18.1-8.1 18.1-18.1v-.2c-.1-1.3-.2-13 14.6-14.4 9.9-.1 18-8.2 18-18.1V86.7c0-10-8.2-18.2-18.2-18.2zM365.7 82.1c-10 0-18.1 8.1-18.1 18.1v84c0 10 8.1 18.1 18.1 18.1s18.1-8.1 18.1-18.1v-84c.1-10-8.1-18.1-18.1-18.1zM708.4 133.8h-.2c-.5 0-13 .6-14.4-14.7v-.2c-.3-9.7-8.4-17.6-18.1-17.6h-32.6c-.8 0-7.6-.3-11.6-4.5-2.2-2.3-2.9-5.6-2.9-9.7v-.4c0-4.1.7-7.4 2.9-9.7 4.2-4.5 11.6-4.5 11.7-4.5h32.3c10 0 18.2-8.1 18.2-18.2V54h.1c-.2-9.8-8.2-17.8-18.1-17.8h-32.5c-10 0-18.1 8.1-18.1 18-1.4 14.8-13.1 14.7-14.4 14.6h-.2c-10 0-18.1 8.1-18.1 18.1s8.1 18.1 18.1 18.1h.2c.5 0 12.9-.6 14.4 14.6.1 9.9 8.2 18 18.1 18h32.5c.5 0 7.5.1 11.7 4.5 2.2 2.3 2.9 5 2.9 9.3v.6c0 4.1-.7 7.5-2.9 9.9-4.1 4.4-11.4 4.6-11.7 4.6h-32.3c-.1 0-7.5-.1-11.7-4.5-2.2-2.3-3.2-5.5-2.9-9.6v-.4c0-10-8.1-18.1-18.1-18.1s-18.1 8.1-18.1 18.1 8.1 18.1 18.1 18.1h.3c1.6 0 12.9-.2 14.3 14.6.1 9.9 8.2 18 18.1 18h32.5c10 0 18.1-8.1 18.1-18.1v-1.3c2-13.3 13-13.2 14.2-13.1h.2c10 0 18.1-8.1 18.1-18.1s-8.1-18.4-18.1-18.3zM365.7 36c-10.1 0-18.2 8.2-18.2 18.2s8.2 18.2 18.2 18.2S384 64.3 384 54.2 375.8 36 365.7 36zM120.8 68.5h-.2c-1.1.1-8.9.1-12.6-7.7 0 0 0-.1-.1-.1-.1-.2-.2-.5-.3-.7 0-.1-.1-.2-.1-.3-.1-.2-.1-.4-.2-.6-.1-.1-.1-.3-.2-.5s-.1-.3-.1-.5c-.1-.2-.1-.4-.2-.7 0-.1-.1-.2-.1-.4-.1-.3-.1-.6-.2-.9v-.2c-.1-.4-.1-.7-.2-1.1 0-.3-.1-.7-.1-1-.1-7.3-4.4-13.6-10.7-16.4 0 0-2.9-1.4-5.6-1.5-.4 0-1.4-.1-1.6-.1H55.8c-10 0-18.1 8.1-18.1 18-1.4 14.8-13.1 14.7-14.4 14.6h-.2C13.1 68.4 5 76.5 5 86.5v65.2c0 10 8.1 18.1 18.1 18.1h.2c1.7 0 12-.2 14.2 12.8v1.8C36 199.5 25.2 198.7 22.9 199h-.2c-10.7.3-18.1 8.1-18.1 18.1s8.1 18.1 18.1 18.1h1.1c3 .1 12.3 1.6 13.5 14.6.1 8.4 5.8 15.4 13.6 17.4.2 0 .4.1.5.1.3.1.6.1.9.2 1.1.2 2.2.4 3.3.4H88c9.9 0 18.1-8.1 18.1-18 1.4-14.8 13.1-14.7 14.4-14.6h.2c10 0 18.1-8.1 18.1-18.1s-8.1-18.1-18.1-18.1-18.1 8.1-18.1 18.1v.2c.3 4.1-.7 7.4-2.9 9.7-3.4 3.6-8.9 4.4-10.9 4.5H55.5c-.1 0-7.5-.1-11.7-4.5-2.2-2.3-2.9-5.6-2.9-9.7v-2.7c.2-3 1.2-5.5 2.9-7.3 3.4-3.6 8.9-4.8 10.9-5H88c10 0 18.1-7.7 18.1-17.6 1.4-14.8 13.1-14.7 14.4-14.6h.2c10 0 18.1-8.1 18.1-18.1V86.7c.1-10-8-18.2-18-18.2zm-21.1 93.3c-4.2 4.5-11.6 4.5-11.7 4.5H55.8c-.1 0-7.5-.1-11.7-4.5-2.2-2.3-3.2-5.6-2.9-9.7V85c0-3.4 1-6.2 2.9-8.2 3.5-3.7 9.2-4.4 11.1-4.5h33.4c1.7.1 7.6.7 11.2 4.5 1.9 2 2.9 4.8 2.9 8.2V152.1c.2 4.1-.8 7.4-3 9.7zM120.9 39.9c10.1 0 18.2-8.2 18.2-18.2S131 3.4 120.9 3.4s-18.2 8.2-18.2 18.2 8.1 18.3 18.2 18.3z"/><path d="M708.3 104.8c10.1 0 18.2-8.2 18.2-18.2s-8.2-18.2-18.2-18.2-18.2 8.2-18.2 18.2 8.2 18.2 18.2 18.2z"/></svg>

<svg viewBox="0 0 145.3 271.92707774798924" style="max-height: 500px" xmlns="http://www.w3.org/2000/svg" width="145.3" height="271.92707774798924">
  <path d="M 120.9 39.9 C 131 39.9 139.1 31.7 139.1 21.7 C 139.1 11.7 131 3.4 120.9 3.4 C 110.80000000000001 3.4 102.7 11.6 102.7 21.599999999999998 C 102.7 31.599999999999994 110.8 39.9 120.9 39.9 Z"></path>
  <path d="M 99.7 161.8 C 95.5 166.3 88.1 166.3 88 166.3 L 55.8 166.3 C 55.7 166.3 48.3 166.2 44.1 161.8 C 41.9 159.5 40.9 156.2 41.2 152.1 L 41.2 85 C 41.2 81.6 42.2 78.8 44.1 76.8 C 47.6 73.1 53.3 72.4 55.2 72.3 L 88.6 72.3 C 90.3 72.4 96.2 73 99.8 76.8 C 101.7 78.8 102.7 81.6 102.7 85 L 102.7 152.1 C 102.9 156.2 101.9 159.5 99.7 161.8 Z M 120.8 68.5 L 120.6 68.5 C 119.5 68.6 111.7 68.6 108 60.8 C 108 60.8 108 60.7 107.9 60.7 C 107.8 60.5 107.7 60.2 107.6 60 C 107.6 59.9 107.5 59.8 107.5 59.7 C 107.4 59.5 107.4 59.3 107.3 59.1 C 107.2 59 107.2 58.8 107.1 58.6 C 107 58.4 107 58.3 107 58.1 C 106.9 57.9 106.9 57.7 106.8 57.4 C 106.8 57.3 106.7 57.2 106.7 57 C 106.6 56.7 106.6 56.4 106.5 56.1 L 106.5 55.9 C 106.4 55.5 106.4 55.2 106.3 54.8 C 106.3 54.5 106.2 54.1 106.2 53.8 C 106.1 46.5 101.8 40.2 95.5 37.4 C 95.5 37.4 92.6 36 89.9 35.9 C 89.5 35.9 88.5 35.8 88.3 35.8 L 55.8 35.8 C 45.8 35.8 37.7 43.9 37.7 53.8 C 36.3 68.6 24.6 68.5 23.3 68.4 L 23.1 68.4 C 13.1 68.4 5 76.5 5 86.5 L 5 151.7 C 5 161.7 13.1 169.8 23.1 169.8 L 23.3 169.8 C 25 169.8 35.3 169.6 37.5 182.6 L 37.5 184.4 C 36 199.5 25.2 198.7 22.9 199 L 22.7 199 C 12 199.3 4.6 207.1 4.6 217.1 C 4.6 227.1 12.7 235.2 22.7 235.2 L 23.8 235.2 C 26.8 235.3 36.1 236.8 37.3 249.8 C 37.4 258.2 43.1 265.2 50.9 267.2 C 51.1 267.2 51.3 267.3 51.4 267.3 C 51.7 267.4 52 267.4 52.3 267.5 C 53.4 267.7 54.5 267.9 55.6 267.9 L 88 267.9 C 97.9 267.9 106.1 259.8 106.1 249.9 C 107.5 235.1 119.2 235.2 120.5 235.3 L 120.7 235.3 C 130.7 235.3 138.8 227.2 138.8 217.2 C 138.8 207.2 130.7 199.1 120.7 199.1 C 110.7 199.1 102.6 207.2 102.6 217.2 L 102.6 217.4 C 102.9 221.5 101.9 224.8 99.7 227.1 C 96.3 230.7 90.8 231.5 88.8 231.6 L 55.5 231.6 C 55.4 231.6 48 231.5 43.8 227.1 C 41.6 224.8 40.9 221.5 40.9 217.4 L 40.9 214.7 C 41.1 211.7 42.1 209.2 43.8 207.4 C 47.2 203.8 52.7 202.6 54.7 202.4 L 88 202.4 C 98 202.4 106.1 194.7 106.1 184.8 C 107.5 170 119.2 170.1 120.5 170.2 L 120.7 170.2 C 130.7 170.2 138.8 162.1 138.8 152.1 L 138.8 86.7 C 138.9 76.7 130.8 68.5 120.8 68.5 Z"></path>
</svg>
